X:1
T:Title
%%score { 1 | 2 }
L:1/8
M:4/4
K:Eb
V:1 treble nm="Grand Piano"
V:2 bass 
V:1
 z4 z2[Q:1/4=100] [GB]2 | [GB]2 [EG]2 [GB]2 [Ge]2 | e2 c2 e2 c2 | [GB]>[GB] [GB]>[Ac] [GB]2 [EG]2 | %4
[M:3/4] [EG]4 [DF]2 |[M:1/4] [DB]2 |[M:4/4] [EB]2 [EG]2 [GB]2 [Ge]2 | e2 c2 e2 c2 | %8
 [GB]>[GB] [GB]>[Ac] [GB]2 [EG]2 |[M:3/4] [DF]4 E2 |[M:1/4] E2 |[M:4/4] [CE]2 [CA]2 c2 e2 | %12
 [Ge]2 [GB]2 [GB]2 [EG]2 | [DF]2 [DB]2 [DB]2 [DF]2 |[M:3/4] G2 B2 B2 |[M:1/4] E2 | %16
[M:4/4] [CE]2 [CA]2 c2 e2 | [Ge]2 [GB]2 [GB]2 [EG]2 | [DF]>[DF] [DF]>[EG] [FA]2 [EG]2 | %19
[M:3/4] [DF]4 E2 |] %20
V:2
 z4 z2 [E,B,]2 | [E,B,]2 [E,B,]2 [E,E]2 [E,_D]2 | [A,CA]2 [A,EA]2 [A,CA]2 [A,EA]2 | %3
 [E,E]>[E,E] [E,E]>[E,E] [E,E]2 [E,B,]2 |[M:3/4] [B,,B,]4 [B,,B,]2 |[M:1/4] [B,,A,]2 | %6
[M:4/4] [E,G,]2 [E,B,]2 [E,E]2 [E,_D]2 | [A,CA]2 [A,EA]2 [A,CA]2 [A,EA]2 | %8
 [E,E]>[E,E] [E,E]>[E,E] [E,E]2 [E,B,]2 |[M:3/4] [B,,A,]4 [E,G,]2 |[M:1/4] [E,G,_D]2 | %11
[M:4/4] [A,,A,]2 [A,,A,]2[K:treble] [A,E]2 [A,CA]2 | [E,B,]2 [E,E]2 [E,E]2 [E,B,]2 | %13
 [B,,B,]2 [B,,B,]2 [B,,B,]2 [B,,B,]2 |[M:3/4] [E,B,E]2 [E,G,E]2 [E,G,E]2 |[M:1/4] [E,G,_D]2 | %16
[M:4/4] [A,,A,]2 [A,,A,]2[K:treble] [A,E]2 [A,CA]2 | [E,B,]2 [E,E]2 [E,E]2 [E,B,]2 | %18
 [B,,B,]>[B,,B,] [B,,B,]>[B,,B,] [B,,B,]2 [B,,B,]2 |[M:3/4] [B,,A,]4 [E,G,]2 |] %20

